packages/bezier-icons/icons/variable.svg

<svg width="24" height="24" viewBox="0 0 24 24" fill="none" xmlns="http://www.w3.org/2000/svg">
<path fill-rule="evenodd" clip-rule="evenodd" d="M6 7V5H5L4.82373 5.00509C3.24892 5.09634 2 6.40232 2 8V10L1.99327 10.1166C1.93551 10.614 1.51284 11 1 11V13L1.11662 13.0067C1.61396 13.0645 2 13.4872 2 14V16L2.00509 16.1763C2.09634 17.7511 3.40232 19 5 19H6V17H5L4.88338 16.9933C4.38604 16.9355 4 16.5128 4 16V14L3.99491 13.8237C3.9544 13.1247 3.67456 12.4899 3.2361 12C3.71115 11.4692 4 10.7684 4 10V8L4.00673 7.88338C4.06449 7.38604 4.48716 7 5 7H6ZM6.2063 11.9928C6.2063 12.7374 6.81477 13.3459 7.55935 13.3459C8.30393 13.3459 8.91241 12.7374 8.91241 11.9928C8.91241 11.2492 8.30393 10.6407 7.55935 10.6407C6.81477 10.6407 6.2063 11.2492 6.2063 11.9928ZM10.6869 11.9928C10.6869 12.7374 11.2964 13.3459 12.0399 13.3459C12.7845 13.3459 13.393 12.7374 13.393 11.9928C13.393 11.2492 12.7845 10.6407 12.0399 10.6407C11.2964 10.6407 10.6869 11.2492 10.6869 11.9928ZM16.5209 13.3459C15.7763 13.3459 15.1679 12.7374 15.1679 11.9928C15.1679 11.2492 15.7763 10.6407 16.5209 10.6407C17.2645 10.6407 17.874 11.2492 17.874 11.9928C17.874 12.7374 17.2645 13.3459 16.5209 13.3459ZM23 11C22.4872 11 22.0645 10.614 22.0067 10.1166L22 10V8C22 6.40232 20.7511 5.09634 19.1763 5.00509L19 5H18V7H19C19.5128 7 19.9355 7.38604 19.9933 7.88338L20 8V10C20 10.7684 20.2889 11.4692 20.7639 12C20.3254 12.4899 20.0456 13.1247 20.0051 13.8237L20 14V16C20 16.5128 19.614 16.9355 19.1166 16.9933L19 17H18V19H19C20.5977 19 21.9037 17.7511 21.9949 16.1763L22 16V14C22 13.4872 22.386 13.0645 22.8834 13.0067L23 13V11Z" fill="#313234"/>
</svg>

<svg xmlns="http://www.w3.org/2000/svg" width="24" height="24" fill="none" viewBox="0 0 24 24"><path fill="#313234" fill-rule="evenodd" d="M6 7V5H5l-.176.005A3 3 0 0 0 2 8v2l-.007.117A1 1 0 0 1 1 11v2l.117.007A1 1 0 0 1 2 14v2l.005.176A3 3 0 0 0 5 19h1v-2H5l-.117-.007A1 1 0 0 1 4 16v-2l-.005-.176A3 3 0 0 0 3.236 12c.475-.53.764-1.232.764-2V8l.007-.117A1 1 0 0 1 5 7zm.206 4.993c0 .744.609 1.353 1.353 1.353.745 0 1.353-.609 1.353-1.353S8.304 10.64 7.56 10.64c-.744 0-1.353.608-1.353 1.352m4.48 0c0 .744.61 1.353 1.354 1.353s1.353-.609 1.353-1.353-.609-1.352-1.353-1.352-1.353.608-1.353 1.352m5.835 1.353a1.356 1.356 0 0 1-1.353-1.353c0-.744.608-1.352 1.353-1.352.744 0 1.353.608 1.353 1.352s-.61 1.353-1.353 1.353M23 11a1 1 0 0 1-.993-.883L22 10V8a3 3 0 0 0-2.824-2.995L19 5h-1v2h1a1 1 0 0 1 .993.883L20 8v2c0 .768.289 1.47.764 2a3 3 0 0 0-.759 1.824L20 14v2a1 1 0 0 1-.883.993L19 17h-1v2h1a3 3 0 0 0 2.995-2.824L22 16v-2a1 1 0 0 1 .883-.993L23 13z" clip-rule="evenodd"/></svg>
